X: 17677
T: Holly Bush, The
R: jig
M: 6/8
K: Amajor
|:cBA BAE|AEA Bcd|cBA fed|cec dcB|
cBA BAE|AEA Bcd|cBA fed|efg a2 z:|
|:aee aee|aee edc|Bdd Bdd|Bdd dcB|
cBc ded|cBA Bed|cBA fec|efg a2 z:|

